X:435
T: "Gertrud"
N: Z1115
O: Europa, Mitteleuropa, Deutschland, Westfalen
R: Romanze, Ballade, Maria, geistlich
M: 2/4
L: 1/16
K: Ab
cB | A2AGABce | B2BAB2
cB | BAAGABcd | B4z2
Bc | d2d2d2cB | c2ecA2
A2 | BdcBc2B2 | A4z2

